X: 05086
T: TIM McCARTHY'S REEL
C: Bob McQuillen 9 Nov 80
B: Bob's Note Book 5 #86
%R: reel
Z: 2021 John Chambers <jc:trillian.mit.edu>
M: C
L: 1/8
K: D
FG \
| AFGB A2de | fdfa f2dA | BGBd AFAd | BAFD E2FG |\
| AFGB BAde | fdfa fddA | BGdB BAdg | fedc d2 :|
|: de \
| fdfg fdag | fdfg f2af | edef gbag | fdBd A2de |\
| fdfg fdag | f2fg fdaf | gbag fafd | edef d2 :|
%%begintext align
%% Whenever I visit my
%% old friend, Jim McCarthy, up north, during the
%% hunting season, his nephew Tim is there, too.
%% Now, _there_ is one kind and thoughtful young
%% man. He's always so nice to me - Thank you, TImmy!
%%endtext

%%sep 1 1 500

%%sep 1 1 500

